flaticon/hand-gestures/tap-87.svg

<svg xmlns="http://www.w3.org/2000/svg" width="32" height="32" viewBox="0 0 24 24">
    <path d="M 12.359375 5.601562 C 13.679688 5.601562 14.800781 6.679688 14.800781 8 C 14.800781 8.238281 14.960938 8.398438 15.199219 8.398438 C 15.441406 8.398438 15.601562 8.238281 15.601562 8 C 15.601562 6.238281 14.160156 4.800781 12.359375 4.800781 C 10.601562 4.800781 9.199219 6.199219 9.199219 8 C 9.199219 8.804688 9.414062 9.453125 9.828125 9.941406 L 8.121094 11.71875 C 7.960938 11.878906 7.960938 12.121094 8.121094 12.28125 C 8.199219 12.359375 8.320312 12.398438 8.398438 12.398438 C 8.519531 12.398438 8.601562 12.359375 8.679688 12.28125 L 10.433594 10.453125 C 10.628906 10.574219 10.84375 10.675781 11.078125 10.761719 C 11.121094 10.800781 11.160156 10.800781 11.199219 10.800781 C 11.359375 10.800781 11.519531 10.679688 11.558594 10.558594 C 11.640625 10.359375 11.519531 10.121094 11.320312 10.039062 C 10.398438 9.679688 10 9.078125 10 8 C 10 6.640625 11.039062 5.601562 12.359375 5.601562 Z M 12.359375 5.601562"/>
    <path d="M 9.199219 16.800781 L 2.238281 16.800781 C 1.558594 16.800781 0.800781 16.320312 0.800781 15.601562 L 0.800781 2.199219 C 0.800781 1.480469 1.519531 0.800781 2.238281 0.800781 L 21.800781 0.800781 C 22.519531 0.800781 23.199219 1.480469 23.199219 2.199219 L 23.199219 13.601562 C 23.199219 13.839844 23.359375 14 23.601562 14 C 23.839844 14 24 13.839844 24 13.601562 L 24 2.199219 C 24 1.039062 22.960938 0 21.800781 0 L 2.238281 0 C 1.078125 0 0 1.039062 0 2.199219 L 0 15.601562 C 0 16.839844 1.160156 17.601562 2.238281 17.601562 L 9.199219 17.601562 C 9.441406 17.601562 9.601562 17.441406 9.601562 17.199219 C 9.601562 16.960938 9.441406 16.800781 9.199219 16.800781 Z M 9.199219 16.800781"/>
    <path d="M 23.878906 16.121094 L 19.441406 11.519531 C 18.441406 10.558594 17.160156 10 15.761719 10 C 14.359375 10 13.078125 10.519531 12.078125 11.519531 C 10.039062 13.558594 10.039062 16.839844 12.078125 18.878906 L 17.320312 23.878906 C 17.398438 23.960938 17.519531 24 17.601562 24 C 17.71875 24 17.800781 23.960938 17.839844 23.878906 C 18 23.71875 18 23.480469 17.839844 23.320312 L 12.640625 18.320312 C 11.800781 17.480469 11.359375 16.359375 11.359375 15.199219 C 11.359375 14 11.800781 12.921875 12.640625 12.078125 C 13.480469 11.238281 14.558594 10.800781 15.761719 10.800781 C 16.960938 10.800781 18.039062 11.238281 18.878906 12.078125 L 23.320312 16.679688 C 23.480469 16.839844 23.71875 16.839844 23.878906 16.679688 C 24.039062 16.519531 24.039062 16.28125 23.878906 16.121094 Z M 23.878906 16.121094"/>
    <path d="M 18.28125 12.640625 C 16.878906 11.238281 14.601562 11.238281 13.199219 12.640625 C 11.800781 14.039062 11.800781 16.320312 13.199219 17.71875 L 14.878906 19.398438 C 15.160156 19.640625 15.480469 19.800781 15.839844 19.800781 C 15.878906 19.800781 15.921875 19.800781 15.921875 19.800781 C 18.28125 19.640625 20.199219 17.71875 20.359375 15.359375 C 20.359375 14.960938 20.238281 14.601562 19.960938 14.320312 Z M 13.800781 17.199219 C 12.679688 16.078125 12.679688 14.320312 13.800781 13.199219 C 14.878906 12.121094 16.679688 12.121094 17.761719 13.199219 L 19.371094 14.851562 C 19.195312 14.9375 18.996094 15.019531 18.800781 15.121094 C 18.160156 15.441406 17.441406 15.761719 16.878906 16.320312 C 16.320312 16.921875 15.921875 17.679688 15.601562 18.359375 C 15.542969 18.511719 15.476562 18.664062 15.40625 18.804688 Z M 16.15625 19.015625 C 16.203125 18.917969 16.242188 18.820312 16.28125 18.71875 C 16.601562 18.039062 16.960938 17.359375 17.441406 16.878906 C 17.921875 16.398438 18.519531 16.121094 19.121094 15.839844 C 19.269531 15.785156 19.421875 15.71875 19.570312 15.644531 C 19.332031 17.394531 17.914062 18.800781 16.15625 19.015625 Z M 16.15625 19.015625"/>
</svg>

<svg xmlns="http://www.w3.org/2000/svg" width="32" height="32" viewBox="0 0 24 24">
    <path d="M12.36 5.602c1.32 0 2.44 1.078 2.44 2.398 0 .238.16.398.4.398.241 0 .402-.16.402-.398 0-1.762-1.442-3.2-3.243-3.2C10.602 4.8 9.2 6.2 9.2 8c0 .805.215 1.453.63 1.941L8.12 11.72a.39.39 0 0 0 0 .562c.078.078.2.117.277.117.122 0 .204-.039.282-.117l1.754-1.828c.195.121.41.223.644.309.043.039.082.039.121.039.16 0 .32-.121.36-.242.082-.2-.04-.438-.239-.52C10.398 9.68 10 9.08 10 8c0-1.36 1.04-2.398 2.36-2.398zm0 0"/>
    <path d="M9.2 16.8H2.237c-.68 0-1.437-.48-1.437-1.198V2.199C.8 1.48 1.52.801 2.238.801h19.563c.719 0 1.398.68 1.398 1.398v11.403c0 .238.16.398.403.398.238 0 .398-.16.398-.398V2.199C24 1.04 22.96 0 21.8 0H2.239C1.078 0 0 1.04 0 2.2v13.402c0 1.238 1.16 2 2.238 2H9.2c.242 0 .403-.16.403-.403 0-.238-.16-.398-.403-.398zm0 0"/>
    <path d="M23.879 16.121L19.44 11.52c-1-.961-2.28-1.52-3.68-1.52-1.402 0-2.683.52-3.683 1.52a5.192 5.192 0 0 0 0 7.359l5.242 5c.078.082.2.121.282.121.117 0 .199-.04.238-.121a.385.385 0 0 0 0-.559l-5.2-5a4.391 4.391 0 0 1-1.28-3.12c0-1.2.44-2.278 1.28-3.122.84-.84 1.919-1.277 3.122-1.277 1.199 0 2.277.437 3.117 1.277l4.441 4.602c.16.16.399.16.559 0a.385.385 0 0 0 0-.559zm0 0"/>
    <path d="M18.281 12.64a3.595 3.595 0 0 0-5.082 0 3.598 3.598 0 0 0 0 5.079l1.68 1.68c.281.242.601.402.96.402h.083c2.36-.16 4.277-2.082 4.437-4.442 0-.398-.12-.757-.398-1.039zm-4.48 4.56a2.799 2.799 0 0 1 0-4c1.078-1.079 2.879-1.079 3.96 0l1.61 1.652c-.176.085-.375.168-.57.27-.64.32-1.36.64-1.922 1.198-.559.602-.957 1.36-1.277 2.04a5.108 5.108 0 0 1-.196.445zm2.355 1.816a3.97 3.97 0 0 0 .125-.297c.32-.68.68-1.36 1.16-1.84.48-.48 1.079-.758 1.68-1.04.149-.054.3-.12.45-.194a3.957 3.957 0 0 1-3.415 3.37zm0 0"/>
</svg>
